X:1
T:Title
%%score { ( 1 3 ) | 2 }
L:1/8
Q:1/4=84
M:6/8
K:Bb
V:1 treble nm="Grand Piano"
V:3 treble 
V:2 bass 
V:1
 FGA B[Ac][_Ad] | [Ge][EG][Ge] [Ge]3 | dcG A3 | [Ec][DB][F,B,D] [B,DF]3 | FGA B[Ac][_Ad] | %5
w: James~McGranahan * * * * *|||||
 [Ge][EG][Ge] [Ge]3 | dcG Adc | [DB]6 | BcB BAG | z3 [^Fd]3 | BcB BAG | ccc c3 | FGA B[Ac][_Ad] | %13
w: ||||||||
 [Ge][EG][Ge] [Ge]3 | dcG Adc | [DFB]6 | FAc c3 | FBd d3 | [Fd][Ge][Fd] [=Ed][Ec][EG] | [Fc]6 | %20
w: |||||||
 FGA B[Ac][_Ad] | [Ge][EG][Ge] [Ge]3 | dcG Adc | [DB]6 |] %24
w: ||||
V:2
 F,G,A, B,F,[B,,B,] | [E,B,][E,B,][E,B,] [E,B,]3 | [F,B,F][F,A,E][F,B,E] [F,E]3 | %3
 [B,,F,][B,,F,]B,, B,,3 | F,G,A, B,F,[B,,B,] | [E,B,][E,B,][E,B,] [E,B,]3 | %6
 [F,B,F][F,A,F][F,B,F] [F,CF][F,A,F][F,A,E] | [B,,B,]6 | %8
 [G,DG][G,EG][G,DG] [G,DG][G,CD][K:bass][G,B,] | [D,A,][D,A,][D,A,] .[D,A,]3 | %10
 [G,DG][G,EG][G,DG] [G,CG][G,CF][K:bass][G,B,=E] | [F,A,F][F,A,F][F,A,F] [F,A,F]3 | %12
 F,G,A, B,F,[B,,B,] | [E,B,][E,B,][E,B,] [E,B,]3 | [F,B,F][F,A,F][F,B,F] [F,CF][F,A,F][F,EF] | %15
 B,,6 | [F,A,E][F,CE][F,A,E] [F,A,E]3 | [B,D][B,DF][B,F] [B,F]3 | %18
 [B,,B,][B,,B,][B,,B,] [C,G,][C,G,][C,B,] | [F,A,]A,G, F,3 | F,G,A, B,F,[B,,B,] | %21
 [E,B,][E,B,][E,B,] [E,B,]3 | [F,B,F][F,A,F][F,B,F] [F,CF][F,A,F][F,E] | [B,,F,]6 |] %24
V:3
 x6 | x6 | x6 | x6 | x6 | x6 | x6 | x6 | x6 | [^Fd][Fd][Fd] z2 D | x6 | x6 | x6 | x6 | x6 | x6 | %16
 x6 | x6 | x6 | z CB, A,3 | x6 | x6 | x6 | x6 |] %24

